X: 21023
M: 6/8
L: 1/8
K: Bb
V: 1 name="3"
(B2d) F3 | Bdg f3 | fbd g2f | c3 (e2d) |\
(B2d) F3 | Bdg f3 | bBd fFd | (c3 B2) H|]
d |\
g2b d3 |aba g3 | fde cdB | cAB G2A |\
(B2d) F3 | Bdg f3 | bBd fFd | (c3 "^D.C."B2) |]


